X:1
T:Albert C. Fisher
T:James Rowe
T:Just One Step At a Time
%%score { ( 1 2 ) | ( 3 4 ) }
L:1/8
M:4/4
K:Bb
V:1 treble 
V:2 treble 
V:3 bass 
V:4 bass 
V:1
{/x} F2 | F3 G G2 B2 | B3 A A2 B2 | c3 d e2 f2 | (e4 d2) d2 | d3 A B2 =B2 | c3 G A4 | %7
w: I|nev\- er fear when|night is near And|hard the hill to|climb; * E\-|nough for me if|I but see|
w: As\-|sured that He will|care for me, I'll|trust His love sub\-|lime, * And|press a\- long, with|sigh, or song,|
w: His|way I choose and|shall not lose The|path to that fair|clime, * For|He will show the|way to go,|
w: My|trust\- ing soul will|reach the goal, And|hear the home bells|chime, * Tho'|I but see, make|bright for me,|
 G2 G2 B z A>G | F6 z2 |"^Chorus" d2 F2 F2 c>B | A6 F2 | e2 c2 G2 A>F | F6 de | f2 d2 d3 B | %14
w: Just one step at a|time.|Just one step at a|time, *|Just one step at a|time; E\- *|nough for me if|
w: Just * * * *|||||||
w: |||||||
w: |||||||
 c2 d2[Q:1/4=96]"^Andante" (!fermata!e2 !fermata!G2) | %15
w: I but see *|
w: |
w: |
w: |
"^rit."[Q:1/4=120]"^Allegretto" F2[Q:1/4=112]"^Moderato" B2[Q:1/4=96]"^Andante" B z[Q:1/4=72]"^Adagio" !fermata!c>[Q:1/4=96]"^Andante"B | %16
w: Just one step at a|
w: |
w: |
w: |
 B6 z2 |] %17
w: time.|
w: |
w: |
w: |
V:2
 D2 | D3 D D2 D2 | E3 E E2 F2 | F3 F F2 F2 | F6 F2 | ^F3 F G2 G2 | G3 G F4 | F2 =E2 E z E>E | %8
 F2 C>D E2 z2 | F2 D2 D2 D>D | E6 E2 | F2 F2 E2 E>E | D6 F2 | F2 F2 F3 A | G2 G2 (G2 ^C2) | %15
 D2 D2 =E z _E>D | D6 z2 |] %17
V:3
 B,2 | B,3 B, B,2 F,2 | F,3 C C2 D2 | E3 D C2 C2 | (C4 B,2) B,2 | A,3 B, B,2 B,2 | C3 C C4 | %7
w: |||||||
 =B,2 _B,2 D z (C>B,) | A,2 A,>B, C2 z2 | B,2 B,2 B,2 F,2 | F,2 C>B, A,2 A,2 | C2 A,2 B,2 C>A, | %12
w: * one step, just one|step at a time,|Just one step, one|step at a time, *|Just one step, one step|
 B,2 B,>B, B,2 B,C | D2 B,2 B,3 B, | B,2 =B,2 (C2 _B,2) | B,2 B,2 G, z [F,A,]>[F,B,] | %16
w: at a time, * * *||||
 [F,B,]6 z2 |] %17
w: |
V:4
 B,,2 | B,,3 B,, B,,2 B,,2 | C,3 C, F,2 F,2 | F,3 F, F,2 A,2 | B,6 B,,2 | D,3 D, G,2 F,2 | %6
 =E,3 E, F,4 | D,2 C,2 C, z C,>C, | F,2 F,>F, F,2 z2 | B,,2 B,,2 B,,2 B,,2 | C,2 F,>F, F,2 F,2 | %11
 F,2 F,2 F,2 F,2 | B,,2 D,>G, F,2 B,2 | B,2 B,2 B,,3 D, | E,2 D,2 (C,2 =E,2) | %15
 F,2 G,2 E, z F,,>B,, | B,,6 z2 |] %17

